suite-common/icons/assets/icons/receive.svg

<svg xmlns="http://www.w3.org/2000/svg" xml:space="preserve" fill="none" viewBox="0 0 17 16">
  <path fill="#000" fill-rule="evenodd" d="M8.429 1.822a1 1 0 0 0-.246.184c-.206.228-.193-.112-.193 5.046v4.634l-1.65-1.648c-1.347-1.345-1.676-1.66-1.79-1.71a.85.85 0 0 0-.617-.005c-.151.068-.343.272-.393.42a.96.96 0 0 0 .017.567c.064.142 4.678 4.775 4.844 4.865.152.082.517.087.666.01.054-.029 1.148-1.1 2.431-2.38 1.773-1.769 2.35-2.361 2.406-2.469a.74.74 0 0 0-.161-.874.65.65 0 0 0-.497-.194c-.338-.002-.289-.043-2.104 1.77l-1.65 1.649V7.053c0-5.092.01-4.801-.172-5.02a.7.7 0 0 0-.547-.268c-.17-.01-.225 0-.344.057"/>
</svg>

<svg xmlns="http://www.w3.org/2000/svg" xml:space="preserve" fill="none" viewBox="0 0 17 16"><path d="M8.429 1.822 C 8.351 1.859,8.240 1.942,8.183 2.006 C 7.977 2.234,7.990 1.894,7.990 7.052 L 7.990 11.686 6.340 10.038 C 4.993 8.693,4.664 8.378,4.550 8.328 C 4.372 8.249,4.104 8.247,3.933 8.323 C 3.782 8.391,3.590 8.595,3.540 8.743 C 3.487 8.896,3.496 9.176,3.557 9.310 C 3.621 9.452,8.235 14.085,8.401 14.175 C 8.553 14.257,8.918 14.262,9.067 14.185 C 9.121 14.156,10.215 13.085,11.498 11.805 C 13.271 10.036,13.848 9.444,13.904 9.336 C 14.052 9.048,13.984 8.679,13.743 8.462 C 13.583 8.318,13.459 8.269,13.246 8.268 C 12.908 8.266,12.957 8.225,11.142 10.038 L 9.492 11.687 9.492 7.053 C 9.492 1.961,9.502 2.252,9.320 2.033 C 9.178 1.861,9.009 1.778,8.773 1.765 C 8.603 1.755,8.548 1.765,8.429 1.822 " stroke="none" fill-rule="evenodd" fill="black"></path></svg>
